muebles/img/tools.svg

<svg width="41" height="39" viewBox="0 0 41 39" fill="none" xmlns="http://www.w3.org/2000/svg">
<path d="M6.35315 8.62689C6.73186 9.12113 7.45579 9.16625 7.8926 8.72943L8.58372 8.03763L16.4198 15.8737L17.8697 14.4238L10.0336 6.58773L10.7288 5.89252C11.1684 5.45228 11.1178 4.72699 10.6263 4.35375L6.51858 1.21126C6.11048 0.89886 5.53352 0.937141 5.17053 1.30013L3.30091 3.17044C2.93723 3.53343 2.89827 4.1097 3.21135 4.51849L6.35315 8.62689Z" fill="black"/>
<path d="M22.3129 26.6055C22.3143 26.5836 22.315 26.561 22.315 26.5378C22.315 25.8781 21.6922 24.8965 21.3258 24.3523L26.3523 19.3259C26.908 19.6998 27.9457 20.3574 28.6068 20.3109L22.3129 26.6055Z" fill="black"/>
<path d="M36.0862 12.1566C34.2125 14.0303 31.4849 14.5287 29.1559 13.6509L24.917 17.8906L19.8905 22.9171L15.6509 27.156C16.5286 29.485 16.0303 32.2126 14.1565 34.0863C12.3518 35.891 9.75487 36.4194 7.48603 35.6716C7.11483 35.5492 7.00683 35.0741 7.28368 34.7979L10.6545 31.4264L10.1015 28.8978L7.57353 28.3462L4.20272 31.717C3.92655 31.9938 3.45146 31.8858 3.32909 31.5146C2.58124 29.2458 3.10897 26.6481 4.91435 24.8441C6.78808 22.9704 9.5163 22.4727 11.8446 23.3498C11.8446 23.3498 24.8144 10.3799 25.3497 9.84469C24.4726 7.51636 24.9703 4.78814 26.844 2.91441C28.648 1.10904 31.2457 0.581301 33.5145 1.32915C33.8857 1.45152 33.9937 1.92661 33.7169 2.20279L30.3461 5.57359L30.8977 8.10152L33.4264 8.65455L36.7978 5.28375C37.074 5.00689 37.5491 5.1149 37.6715 5.48609C38.4193 7.75494 37.8909 10.3519 36.0862 12.1566Z" fill="black"/>
<path d="M37.3397 28.4894L30.3342 21.4833L23.4866 28.3322L30.4914 35.3377C31.3739 36.2209 32.8033 36.2209 33.6865 35.3377C36.2427 32.7815 34.7844 34.2405 37.3397 31.6852C38.2201 30.8034 38.2201 29.3713 37.3397 28.4894Z" fill="black"/>
</svg>

<svg width="41" height="39" fill="none" xmlns="http://www.w3.org/2000/svg"><path d="M6.353 8.627c.379.494 1.103.54 1.54.102l.69-.691 7.837 7.836 1.45-1.45-7.836-7.836.695-.695c.44-.44.389-1.166-.103-1.54L6.52 1.212a1.026 1.026 0 00-1.348.09L3.3 3.17a1.023 1.023 0 00-.09 1.347l3.142 4.109zm15.96 17.978l.002-.067c0-.66-.623-1.642-.99-2.186l5.027-5.026c.556.374 1.594 1.031 2.255.985l-6.294 6.294z" fill="#000"/><path d="M36.086 12.157a6.536 6.536 0 01-6.93 1.494l-4.239 4.24-5.027 5.026-4.24 4.239a6.536 6.536 0 01-8.164 8.516.527.527 0 01-.202-.874l3.37-3.372-.553-2.528-2.527-.552-3.371 3.371a.527.527 0 01-.874-.202 6.537 6.537 0 018.516-8.165L25.35 9.845a6.537 6.537 0 018.164-8.516c.372.123.48.598.203.874l-3.37 3.37.55 2.529 2.53.553 3.37-3.371a.527.527 0 01.875.202 6.533 6.533 0 01-1.586 6.67zM37.34 28.49l-7.006-7.007-6.847 6.85 7.004 7.005a2.258 2.258 0 003.196 0l3.653-3.653c.88-.882.88-2.314 0-3.196z" fill="#000"/></svg>
